src/images/user-icon-grey.svg

<svg fill="none" height="38" viewBox="0 0 38 38" width="38" xmlns="http://www.w3.org/2000/svg"><g stroke="#ccc" stroke-linecap="round" stroke-linejoin="round" stroke-miterlimit="10" stroke-width="3"><path d="m28 19c0-5-4-9-9-9s-9 4-9 9 4 9 9 9 9-4 9-9zm-9 9h-15.60001c3.1 5.4 8.90001 9 15.60001 9s12.5-3.6 15.6-9z"/><path d="m1 19c0-9.9 8.1-18 18-18s18 8.1 18 18"/></g></svg>

<svg width="38" height="38" viewBox="0 0 38 38" fill="none" xmlns="http://www.w3.org/2000/svg">
<path d="M28 19C28 14 24 10 19 10C14 10 10 14 10 19C10 24 14 28 19 28C24 28 28 24 28 19ZM19 28H3.39999C6.49999 33.4 12.3 37 19 37C25.7 37 31.5 33.4 34.6 28H19Z" stroke="#CCCCCC" stroke-width="3" stroke-miterlimit="10" stroke-linecap="round" stroke-linejoin="round"/>
<path d="M1 19C1 9.1 9.1 1 19 1C28.9 1 37 9.1 37 19" stroke="#CCCCCC" stroke-width="3" stroke-miterlimit="10" stroke-linecap="round" stroke-linejoin="round"/>
</svg>
